X: 052
T: the Beggar Boy
%R: reel
Z: 2014 John Chambers <jc:trillian.mit.edu>
B: Thompson "Twenty four Country Dances for the Year 1805" p.5 #2
F: http://folkopedia.efdss.org/images/2/2a/Thompson_24_1805.PDF 2014-8-13
M: 2/4
L: 1/16
K: C
|:\
gege c2ce | defd cBAG |\
gege c2ce | dcde c4 :|\
|:\
d2df e2eg | B2Bd c2c2 |
d2df e2eg | ^f2fa Hg4 |\
gege c2ce | defd cBAG |\
gege c2ce | dcde c4 :|
% - - - - - - - - - - - - - - - - - - - - - - - - -
%%begintext align
%% Change sides back again, lead down
%% the middle up again, & Pousette.
%%endtext
% - - - - - - - - - - - - - - - - - - - - - - - - -
